X: 1
T: Little Peggy's Love
C: William Marshall
R: strathspey
B: RSCDS 8-2
Z: 1997 by John Chambers <jc:trillian.mit.edu>
N: Published as Lady Louisa Gordon't Strathspey in 1781.
M: 4/4
L: 1/8
K: D
|: D \
| "D"A,<D D>E "Bm"F>E F<D | "Em"B,<E E>F "A7"G2 GA \
| "G"B<d "D"A>F "Em"E>D "A7"E<F | "D"A,>D "A7"C>E "D"D2- "fine"D :|
|| A \
| "D"d>c d<f "A7"d>c d<f | "E7"d>e d>f "A"e3 f \
| "D"d>A A>F "G"G>g f>e | "D"d>B A>F "A7"E2- "d.C."E |]
